X: 25
T: Offerdalspolska efter Gustav Persa
R: Polska
S: efter Gustav Persa
N: Gammelpolska Fllinge
Z: Hkan Lidn, 2008-09-27
O: Jmtland
Q: 3/8=108
M: 9/8
L: 1/8
K: Dlyd
A2 f f d2 e2 c | def fed efg | a2 f f d2 e2 c | def f d2 e3 |
A2 f f d2 e2 c | def fed efg | a2 f f d2 e2 d | cBc d6 :|
|: ABA G A2 F2 A | cBA GAB A3 | ABA G A2 F2 A | cBA GAB A3 | 
ABA G A2 F2 A | cBA GAB A2 d | d2 e fgf e2 c |d3 d6 :|
